lib/svgs/chat-create.svg

<svg xmlns="http://www.w3.org/2000/svg" viewBox="0 0 20 20">
    <path fill="#000" fill-rule="evenodd" d="M15.8,2 L4.2,2 C2.987,2 2,2.987 2,4.2 L2,12.2 C2,13.414 2.987,14.4 4.2,14.4 L7.105,14.4 L7.105,16.614 C7.105,16.856 7.252,17.075 7.476,17.168 C7.55,17.199 7.628,17.213 7.705,17.213 C7.861,17.213 8.015,17.153 8.13,17.039 L10.944,14.225 C11.178,13.991 11.178,13.611 10.944,13.376 C10.711,13.143 10.331,13.143 10.095,13.375 L8.305,15.166 L8.305,13.8 C8.305,13.469 8.037,13.201 7.705,13.201 L4.2,13.201 C3.649,13.201 3.2,12.751 3.2,12.2 L3.2,4.2 C3.2,3.648 3.649,3.2 4.2,3.2 L15.8,3.2 C16.351,3.2 16.8,3.648 16.8,4.2 L16.8,8.976 C16.8,9.307 17.069,9.576 17.4,9.576 C17.732,9.576 18,9.307 18,8.976 L18,4.2 C18,2.987 17.013,2 15.8,2 L15.8,2 Z M17.4001,13.2026 L15.6001,13.2026 L15.6001,11.4026 C15.6001,11.0706 15.3321,10.8026 15.0001,10.8026 C14.6691,10.8026 14.4001,11.0706 14.4001,11.4026 L14.4001,13.2026 L12.6001,13.2026 C12.2691,13.2026 12.0001,13.4716 12.0001,13.8026 C12.0001,14.1336 12.2691,14.4016 12.6001,14.4016 L14.4001,14.4016 L14.4001,16.2026 C14.4001,16.5336 14.6691,16.8026 15.0001,16.8026 C15.3321,16.8026 15.6001,16.5336 15.6001,16.2026 L15.6001,14.4016 L17.4001,14.4016 C17.7321,14.4016 18.0001,14.1336 18.0001,13.8026 C18.0001,13.4716 17.7321,13.2026 17.4001,13.2026 L17.4001,13.2026 Z M5.1999,9.2373 C4.8679,9.2373 4.5999,9.5063 4.5999,9.8373 C4.5999,10.1693 4.8679,10.4373 5.1999,10.4373 L9.9999,10.4373 C10.3319,10.4373 10.5999,10.1693 10.5999,9.8373 C10.5999,9.5063 10.3319,9.2373 9.9999,9.2373 L5.1999,9.2373 L5.1999,9.2373 Z M15.4001,6.6328 C15.4001,6.3008 15.1311,6.0328 14.8001,6.0328 L5.2001,6.0328 C4.8681,6.0328 4.6001,6.3008 4.6001,6.6328 C4.6001,6.9648 4.8681,7.2328 5.2001,7.2328 L14.8001,7.2328 C15.1311,7.2328 15.4001,6.9648 15.4001,6.6328 L15.4001,6.6328 Z"/>
</svg>

<svg xmlns="http://www.w3.org/2000/svg" viewBox="0 0 20 20">
    <path fill="#000" fill-rule="evenodd" d="M15.8 2H4.2C2.987 2 2 2.987 2 4.2v8c0 1.214.987 2.2 2.2 2.2h2.905v2.214a.601.601 0 0 0 1.025.425l2.814-2.814a.601.601 0 0 0-.849-.85l-1.79 1.791V13.8a.599.599 0 0 0-.6-.599H4.2c-.551 0-1-.45-1-1.001v-8c0-.552.449-1 1-1h11.6c.551 0 1 .448 1 1v4.776a.6.6 0 0 0 1.2 0V4.2c0-1.213-.987-2.2-2.2-2.2m1.6 11.203h-1.8v-1.8a.6.6 0 1 0-1.2 0v1.8h-1.8a.6.6 0 0 0 0 1.199h1.8v1.8a.6.6 0 0 0 1.2 0v-1.8h1.8a.599.599 0 1 0 0-1.2M5.2 9.238a.6.6 0 1 0 0 1.2H10a.6.6 0 1 0 0-1.2H5.2m10.2-2.604a.6.6 0 0 0-.6-.6H5.2a.6.6 0 1 0 0 1.2h9.6a.6.6 0 0 0 .6-.6"/>
</svg>
